X:1
T:Frauenliebe und Leben
T:Nun hast du mir den ersten Schmerz getan.
T:Nun hast du mir den ersten Schmerz getan
T:Robert Schumann
T:Frauenliebe und Leben, Op.42 N°8
T:Adelbert von Chamisso
T:Creative Commons copyright waiver (CC0 1.0 Universal) 
T:Creative Commons copyright waiver (CC0 1.0 Universal) 
C:Robert Schumann
Z:Adelbert von Chamisso
Z:Creative Commons copyright waiver (CC0 1.0 Universal)
%%score 1 { ( 2 4 6 7 ) | ( 3 5 ) }
L:1/8
Q:1/4=52
M:4/4
K:F
V:1 treble nm="Voice" snm="Vo."
V:2 treble nm="Piano" snm="Pno."
V:4 treble 
V:6 treble 
V:7 treble 
V:3 bass 
V:5 bass 
V:1
"^Adagio"!p! z4 !>!A4 | D3/2 D/ D D D D D3/2 E/ | F4!<(! F2 G G!<)! |!mf! A4 z2 A2 | %4
w: Nun|hast du mir den er- sten Schmerz ge-|tan, der a- ber|traf. Du|
 A3/2 D/ D D D D D3/2 E/ | F3 F F3 G | A4 z2 z A | A A A A G3/2 G/ ^F G | ^F4 z!<(! B B B!<)! | %9
w: schläfst, du har- ter, un- barm- herz'- ger|Mann, den To- des-|schlaf. Es|blik- ket die Ver- lass'- ne vor sich|hin, die Welt ist|
!ff! _d4- d3 c |!>(! =B2 z2 z2 z c | d3 d c c c c | =B2 z2 z _A A A | G4- G3 D | _E4 z2!>)!!p! D2 | %15
w: leer, _ ist|leer. Ge-|lie- bet hab' ich und ge-|lebt, ich bin nicht|le- * bend|mehr; Ich|
 ^C C C C D3 D | =E3 =E D3 D | ^C6 D2 | E2 z2 z2!pp! F2 |"^ritard."[Q:1/4=44] E E E E E E G3/2 E/ | %20
w: zieh' mich in mein Inn'- res|still zu- rück, der|Schlei- er|fällt, da|hab' ich dich und mein ver- lor- nes|
[Q:1/4=36] ^C4 C2 D D | !fermata!E4 z4 ||[K:Bb][M:3/4][Q:1/4=60]"_Adagio" z6 | %23
w: Glück, du mei- ne|Welt!||
[Q:1/4=48]"_Tempo wie das erste Lied." z6 | z6 | z6 | z6 | z6 | z6 | z6 | z6 | z6 | z6 | z6 | z6 | %35
w: ||||||||||||
 z6 | z6 | z6 | z6 | z6 | z6 | z6 | !fermata!z6 |] %43
w: ||||||||
V:2
 z2 [DFA]6- | [DFA]4 ([B,D]7/2 [^CE]/) | [F,DF]4- [F,DF]3 [G,G] | [A,^CA]2 z2 [DFA]4- | %4
 [DFA]4 ([B,D]7/2 [^CE]/) | [F,DF]4- [F,DF]3 [G,G] | [A,^CA]2 z2 ([=C_E^FA]4- | [CEFA]4 [B,_EG]4 | %8
!<(! [_GA_e]4) [GBe]4!<)! |!f! f8 | f8 |!p! ([=D_A=d]4 [CGc]4 | [=B,F=B]4 [CF_A]4 | [DFG-]8) | %14
 [C_EG]4 [_B,DG]4 | [_B,^CG]4 [B,-DG-]4 | [B,=EG]4 [B,-DG-]4 | [B,^CG]4 [_B,-DG]4 | %18
 ([B,EG]4 [A,F]4) |"^ritard." [B,DE]8 | z8 | z8 || %22
[K:Bb][M:3/4] z!<(! !>!G,EA!<)!!p!!>(! ([Ge]>[Fd])!>)! |!pp! [B,DB] z (.[B,G]2 z .[A,F]) | %24
 (.[B,F]2 .[B,G]2 z .[A,F]) | (.[B,F] z!<(! B2- BG)!<)! | %26
!mf!!>(! ([=B,F]>[CE])!>)!!p! [CE] [C_A]2 [B,G] | (.[CG]2 .[C_A]2 z .[=B,G]) | %28
 [CG] z!<(! ([Gc-]2 c>B)!<)! |!mf! (BA) z2!<(! ([CFA][B,FB] | [EAe]3!<)! [DBd][CGc]z/[CGB]/) | %31
 (B2 A2)!pp! [A,CF][B,DF] | [A,EF]3 [B,DF][A,CF]>[G,=B,F] | (F6 | E6) | (D6 | %36
[K:bass] [B,D]2) C2 A,2 |!pp! [D,B,]4 ([C,B,][^C,G,]) | x2 C2 A,2 | %39
[K:treble] (.[B,F]2 .[B,G]2 z .[A,F]) | (.[B,F]2 .[B,G]2 z .[A,F]) | [B,F]2 z2 x2 | x2 x2 z2 |] %43
V:3
 z8 | z8 | z4!f! [D,,D,]3 [B,,,B,,] | [A,,,A,,]4 z4 | z8 | z4!f! [D,,D,]3 [B,,,B,,] | %6
 [A,,,A,,]2 z2 [D,,D,]4- | [D,,D,]8 | [C_E]4 [B,E]4 | [B,_D]4 C4 | =D4 C4 | ([F,=B,]4 [_E,G,]4 | %12
!>(! [D,_A,]4 [C,F,A,]4!>)! |!pp! !>![=B,,F,G,-]8) |!>(! [C,G,]4 [D,G,]4!>)! | %15
!pp! [=E,G,]4 [D,G,-]4 | [^C,G,]4 [D,G,-]4 | [E,G,]4 [D,G,-]4 | [^C,-G,]4 C,2 D,2 | %19
 [G,,D,]6 (E,,>G,,) | ([E,A,^C]6 [D,^F,=B,]2) |!pp! !fermata![A,,,^C,E,A,-]8 || %22
[K:Bb][M:3/4] [C,_E,A,][I:staff -1] G,[I:staff +1] F,7/2 A,/ | [D,F,] z!p! (.[E,,E,]2 z .[F,,E,]) | %24
 (.[B,,D,]2 .[E,,E,]2 z .[F,,E,]) | (.[B,,D,] z!>(! D,2-!>)! D,!pp!G,) | %26
 (_A,>G,) G, [F,,F,]2 [G,,F,] | (.[C,E,]2 .[F,,F,]2 z .[G,,F,]) | [C,E,] z (G,2 _G,2) | %29
 (B,A,) z2!p! ([E,F,][D,F,] | [C,F,]3!mf! [B,,F,][E,G,]z/=E,/) | F,4 [_E,F,][D,F,] | %32
 [C,F,]3 [B,,F,][E,F,]>[D,F,] | (D,2 C,2 =B,,2- | B,,2) (C,2 A,,2- | %35
 A,,2 _B,,2) ([E,,E,][=E,,=E,]) | [F,,-F,]4 ([F,,,F,,]2 | %37
 [^F,,,^F,,]2 [G,,,G,,]2) ([E,,,E,,][=E,,,=E,,]) | [=F,,,=F,,-]4 [F,,F,]2 | %39
 (.[B,,D,]2 .[E,,E,]2 z .[F,,E,]) | (.[B,,D,]2 .[E,,E,]2 z .[F,,E,]) | [B,,D,]2 z2 [F,B,D]2- | %42
 !fermata![F,B,D]4 z2 |] %43
V:4
 x8 | x4 G,4 | x8 | x8 | x4 G,4 | x8 | x8 | x8 | x8 | [FB_d]4 [FAc]4 | [F_A=B]4 [Ac]4 | x8 | x8 | %13
 x8 | x8 | x8 | x8 | x8 | x4 E2 D2 | x8 | x8 | x8 ||[K:Bb][M:3/4] z2 E2 x2 | x6 | x6 | x2 [B,D]4 | %26
 x6 | x6 | x2 C4 | [CF]2 x4 | x6 | [CF]4 x2 | x6 | G,6- | G,4- G,F,- | F,4 G,2 |[K:bass] F,2 _E,4 | %37
 x6 | D,2 _E,4 |[K:treble] x6 | x6 | x6 | x6 |] %43
V:5
 x8 | x8 | x8 | x8 | x8 | x8 | x8 | x8 | x8 | F,8 | F,8 | x8 | x8 | x8 | x8 | x8 | x8 | x8 | %18
 x4 D,4 | x8 | A,,8- | !fermata!A,,8 ||[K:Bb][M:3/4] [F,,,F,,]6 | x6 | x6 | x2 G,,4 | C,3 x3 | x6 | %28
 x x E,4 | [E,F,]2 x4 | x6 | x6 | x6 | F,6 | x6 | x6 | x6 | x6 | x6 | x6 | x6 | x2 x2 B,,2- | %42
 !fermata![B,,,B,,]4 x2 |] %43
V:6
 x8 | x8 | x8 | x8 | x8 | x8 | x8 | x8 | x8 | x8 | x8 | x8 | x8 | x8 | x8 | x8 | x8 | x8 | x8 | %19
 x8 | x8 | x8 ||[K:Bb][M:3/4] x6 | x6 | x6 | x6 | x6 | x6 | x4 _G2 | x6 | x6 | x6 | x6 | x6 | x6 | %35
 x6 |[K:bass] x6 | x6 | x6 |[K:treble] x6 | x6 | x6 | x6 |] %43
V:7
 x8 | x8 | x8 | x8 | x8 | x8 | x8 | x8 | x8 | x8 | x8 | x8 | x8 | x8 | x8 | x8 | x8 | x8 | x8 | %19
 x8 | x8 | x8 ||[K:Bb][M:3/4] x6 | x6 | x6 | x6 | x6 | x6 | x6 | x6 | x6 | x6 | x6 | =B,2 C2 D2- | %34
 D2- DC- C2- | C2- CB,- (B,2 |[K:bass] F,)B,- B,7/2 B,/ | x6 | (F,B,- B,7/2 B,/) |[K:treble] x6 | %40
 x6 | x6 | x6 |] %43

